X: 43507
T: Yew Piney Mountain
R: reel
M: 4/4
K: Adorian
L: 1/16
|:eg|a2ag efge dged cdeg|a2ag edcA cdeg a4|abag efge dged cBAc|e6 e3dc2 A2EG|ABAG EDCA, CDEG A2:|cB|ABcd e4 e4 edc2|A4 e2e2 dedc A2EG|A2Ac e4 edc2 A2EG|A2Ac e4 edc2 A2EG|ABAG EDCA, CDEG A2||

